; generated by Slic3r 1.3.0-dev on 2019-08-23 at 03:29:52

; external perimeters extrusion width = 0.40mm (1.57mm^3/s)
; perimeters extrusion width = 0.40mm (3.14mm^3/s)
; infill extrusion width = 0.40mm (3.59mm^3/s)
; solid infill extrusion width = 0.40mm (1.35mm^3/s)
; top infill extrusion width = 0.40mm (0.90mm^3/s)

;XXXXXXXXstarting gcode, set for your own printerXXXXXXXXX
M107
M107
M104 S215 ; set temperature
G28 ; home all axes
G29 S1
G32
M400
G0 X0 Y0
G0 Z0.2 ; DROP TO BED to 0.2mm
G92 E0 ; ZERO E0
G1 X40 E15 F500 ; EXTRUDE 15MM OVER 4CM
G92 E0 ; ZERO E0
G1 E-4 F500 ; RETRACT
G1 X80 F4000 ; WIPE
G1 Z1 F5000 ; lift nozzle

; Filament gcode

G21 ; set units to millimeters
G90 ; use absolute coordinates
M83 ; use relative distances for extrusion
G1 E-8.00000 F2400.00000
G1 Z0.800 F12000.000
G1 X58.923 Y83.507 F12000.000
G1 Z0.250 F12000.000
G1 E8.00000 F2400.00000
G1 F1800
G1 X61.098 Y82.644 Z0.250 E0.10854
G1 X62.516 Y82.496 Z0.250 E0.06615
G1 X136.639 Y82.496 Z0.250 E3.43877
G1 X138.945 Y82.894 Z0.250 E0.10854
G1 X140.985 Y84.039 Z0.250 E0.10854
G1 X142.525 Y85.801 Z0.250 E0.10854
G1 X143.509 Y88.825 Z0.250 E0.14755
G1 X143.724 Y91.440 Z0.250 E0.12172
G1 X143.728 Y91.496 Z0.250 E0.00260
G1 X144.374 Y100.238 Z0.250 E0.40666
G1 X144.393 Y100.746 Z0.250 E0.02358
G1 X144.393 Y110.611 Z0.250 E0.45766
G1 X143.996 Y112.917 Z0.250 E0.10854
G1 X142.850 Y114.957 Z0.250 E0.10854
G1 X141.088 Y116.496 Z0.250 E0.10854
G1 X138.913 Y117.357 Z0.250 E0.10854
G1 X137.500 Y117.504 Z0.250 E0.06589
G1 X62.533 Y117.504 Z0.250 E3.47790
G1 X60.228 Y117.106 Z0.250 E0.10854
G1 X58.188 Y115.961 Z0.250 E0.10854
G1 X56.648 Y114.199 Z0.250 E0.10854
G1 X55.787 Y112.023 Z0.250 E0.10854
G1 X55.641 Y110.619 Z0.250 E0.06549
G1 X55.641 Y110.613 Z0.250 E0.00030
G1 X55.641 Y110.610 Z0.250 E0.00014
G1 X55.638 Y107.615 Z0.250 E0.13896
G1 X55.638 Y107.615 Z0.250 E0.00000
G1 X55.624 Y89.644 Z0.250 E0.83369
G1 X55.624 Y89.644 Z0.250 E0.00000
G1 X55.623 Y89.395 Z0.250 E0.01158
G1 X56.019 Y87.089 Z0.250 E0.10854
G1 X57.163 Y85.048 Z0.250 E0.10854
G1 X58.867 Y83.556 Z0.250 E0.10507
G1 X59.350 Y83.774 Z0.250 F12000.000
G1 F1800
G1 X62.516 Y82.943 Z0.250 E0.15186
G1 X136.639 Y82.943 Z0.250 E3.43877
G1 X138.866 Y83.340 Z0.250 E0.10494
G1 X140.819 Y84.482 Z0.250 E0.10494
G1 X142.257 Y86.228 Z0.250 E0.10494
G1 X143.064 Y88.862 Z0.250 E0.12781
G1 X143.279 Y91.477 Z0.250 E0.12172
G1 X143.283 Y91.529 Z0.250 E0.00243
G1 X143.929 Y100.271 Z0.250 E0.40666
G1 X143.946 Y100.746 Z0.250 E0.02206
G1 X143.946 Y110.611 Z0.250 E0.45766
G1 X143.549 Y112.838 Z0.250 E0.10494
G1 X142.408 Y114.791 Z0.250 E0.10494
G1 X140.661 Y116.229 Z0.250 E0.10494
G1 X137.500 Y117.057 Z0.250 E0.15162
G1 X62.533 Y117.057 Z0.250 E3.47790
G1 X60.306 Y116.660 Z0.250 E0.10494
G1 X58.354 Y115.518 Z0.250 E0.10494
G1 X56.916 Y113.772 Z0.250 E0.10494
G1 X56.087 Y110.619 Z0.250 E0.15126
G1 X56.087 Y110.612 Z0.250 E0.00030
G1 X56.087 Y110.610 Z0.250 E0.00013
G1 X56.085 Y107.614 Z0.250 E0.13896
G1 X56.085 Y107.614 Z0.250 E0.00000
G1 X56.070 Y89.644 Z0.250 E0.83369
G1 X56.070 Y89.644 Z0.250 E0.00000
G1 X56.070 Y89.394 Z0.250 E0.01158
G1 X56.465 Y87.167 Z0.250 E0.10494
G1 X57.605 Y85.213 Z0.250 E0.10494
G1 X59.292 Y83.822 Z0.250 E0.10147
G1 F9600
G1 X62.516 Y82.943 E-0.79362
G1 F9600
G1 X91.175 Y82.943 E-6.80638
G1 E-0.40000 F2400.00000
G1 Z1.050 F12000.000
G1 X136.357 Y109.468 F12000.000
G1 Z0.250 F12000.000
G1 E8.00000 F2400.00000
G1 F1800
G1 X63.675 Y109.468 Z0.250 E3.37191
G1 X63.674 Y107.608 Z0.250 E0.08629
G1 X63.672 Y105.236 Z0.250 E0.11005
G1 X63.672 Y105.236 Z0.250 E0.00000
G1 X63.672 Y105.107 Z0.250 E0.00600
G1 X63.668 Y100.029 Z0.250 E0.23556
G1 X63.667 Y99.610 Z0.250 E0.01945
G1 X63.663 Y94.830 Z0.250 E0.22177
G1 X63.663 Y94.113 Z0.250 E0.03324
G1 X63.660 Y90.532 Z0.250 E0.16614
G1 X135.587 Y90.532 Z0.250 E3.33687
G1 X135.714 Y92.089 Z0.250 E0.07248
G1 X135.871 Y94.423 Z0.250 E0.10853
G1 X136.045 Y97.034 Z0.250 E0.12138
G1 X136.118 Y98.117 Z0.250 E0.05038
G1 X136.152 Y98.613 Z0.250 E0.02303
G1 X136.304 Y100.855 Z0.250 E0.10428
G1 X136.357 Y100.980 Z0.250 E0.00630
G1 X136.357 Y109.393 Z0.250 E0.39031
G1 X136.804 Y109.914 Z0.250 F12000.000
G1 F1800
G1 X63.229 Y109.914 Z0.250 E3.41331
G1 X63.227 Y107.609 Z0.250 E0.10698
G1 X63.225 Y105.236 Z0.250 E0.11005
G1 X63.225 Y105.107 Z0.250 E0.00600
G1 X63.221 Y100.029 Z0.250 E0.23556
G1 X63.221 Y99.610 Z0.250 E0.01945
G1 X63.217 Y94.830 Z0.250 E0.22177
G1 X63.216 Y94.113 Z0.250 E0.03324
G1 X63.213 Y90.237 Z0.250 E0.17982
G1 X63.213 Y90.086 Z0.250 E0.00705
G1 X135.998 Y90.086 Z0.250 E3.37668
G1 X136.160 Y92.056 Z0.250 E0.09171
G1 X136.316 Y94.393 Z0.250 E0.10869
G1 X136.491 Y97.004 Z0.250 E0.12138
G1 X136.563 Y98.087 Z0.250 E0.05037
G1 X136.597 Y98.582 Z0.250 E0.02302
G1 X136.744 Y100.749 Z0.250 E0.10076
G1 X136.804 Y100.889 Z0.250 E0.00703
G1 X136.804 Y109.839 Z0.250 E0.41526
G1 X137.250 Y110.361 Z0.250 F12000.000
G1 F1800
G1 X62.783 Y110.361 Z0.250 E3.45471
G1 X62.781 Y107.609 Z0.250 E0.12767
G1 X62.779 Y105.237 Z0.250 E0.11005
G1 X62.779 Y105.107 Z0.250 E0.00600
G1 X62.775 Y100.030 Z0.250 E0.23556
G1 X62.774 Y99.611 Z0.250 E0.01945
G1 X62.771 Y94.830 Z0.250 E0.22177
G1 X62.770 Y94.114 Z0.250 E0.03324
G1 X62.767 Y90.238 Z0.250 E0.17982
G1 X62.766 Y89.639 Z0.250 E0.02777
G1 X136.409 Y89.639 Z0.250 E3.41648
G1 X136.605 Y92.023 Z0.250 E0.11095
G1 X136.761 Y94.364 Z0.250 E0.10885
G1 X136.936 Y96.974 Z0.250 E0.12138
G1 X137.009 Y98.057 Z0.250 E0.05036
G1 X137.042 Y98.552 Z0.250 E0.02301
G1 X137.184 Y100.643 Z0.250 E0.09724
G1 X137.216 Y100.718 Z0.250 E0.00377
G1 X137.220 Y100.727 Z0.250 E0.00047
G1 X137.223 Y100.734 Z0.250 E0.00036
G1 X137.250 Y100.797 Z0.250 E0.00316
G1 X137.250 Y110.286 Z0.250 E0.44021
G1 X136.817 Y110.111 F12000.000
G1 X135.737 Y109.195 Z0.250 F12000.000
G1 F1800
G1 X136.085 Y108.848 Z0.250 E0.02284
G1 X136.085 Y108.215 Z0.250 E0.02942
G1 X135.105 Y109.195 Z0.250 E0.06445
G1 X134.472 Y109.195 Z0.250 E0.02942
G1 X136.085 Y107.583 Z0.250 E0.10606
G1 X136.085 Y106.950 Z0.250 E0.02942
G1 X133.839 Y109.195 Z0.250 E0.14768
G1 X133.206 Y109.195 Z0.250 E0.02942
G1 X136.085 Y106.317 Z0.250 E0.18929
G1 X136.085 Y105.684 Z0.250 E0.02942
G1 X132.574 Y109.195 Z0.250 E0.23090
G1 X131.941 Y109.195 Z0.250 E0.02942
G1 X136.085 Y105.052 Z0.250 E0.27251
G1 X136.085 Y104.419 Z0.250 E0.02942
G1 X131.308 Y109.195 Z0.250 E0.31412
G1 X130.675 Y109.195 Z0.250 E0.02942
G1 X136.085 Y103.786 Z0.250 E0.35573
G1 X136.085 Y103.153 Z0.250 E0.02942
G1 X130.043 Y109.195 Z0.250 E0.39734
G1 X129.410 Y109.195 Z0.250 E0.02942
G1 X136.085 Y102.521 Z0.250 E0.43895
G1 X136.085 Y101.888 Z0.250 E0.02942
G1 X128.777 Y109.195 Z0.250 E0.48057
G1 X128.144 Y109.195 Z0.250 E0.02942
G1 X136.085 Y101.255 Z0.250 E0.52218
G1 X136.085 Y100.898 Z0.250 E0.01662
G1 X136.085 Y100.898 Z0.250 E0.00000
G1 X136.037 Y100.787 Z0.250 E0.00559
G1 X136.037 Y100.787 Z0.250 E0.00000
G1 X136.030 Y100.677 Z0.250 E0.00513
G1 X127.512 Y109.195 Z0.250 E0.56019
G1 X126.879 Y109.195 Z0.250 E0.02942
G1 X135.990 Y100.085 Z0.250 E0.59915
G1 X135.949 Y99.492 Z0.250 E0.02762
G1 X126.246 Y109.195 Z0.250 E0.63812
G1 X125.614 Y109.195 Z0.250 E0.02942
G1 X135.909 Y98.900 Z0.250 E0.67708
G1 X135.880 Y98.469 Z0.250 E0.02007
G1 X135.880 Y98.469 Z0.250 E0.00000
G1 X135.869 Y98.307 Z0.250 E0.00754
G1 X124.981 Y109.195 Z0.250 E0.71605
G1 X124.348 Y109.195 Z0.250 E0.02942
G1 X135.829 Y97.715 Z0.250 E0.75503
G1 X135.789 Y97.122 Z0.250 E0.02764
G1 X123.715 Y109.195 Z0.250 E0.79403
G1 X123.083 Y109.195 Z0.250 E0.02942
G1 X135.749 Y96.529 Z0.250 E0.83303
G1 X135.710 Y95.936 Z0.250 E0.02764
G1 X122.450 Y109.195 Z0.250 E0.87203
G1 X121.817 Y109.195 Z0.250 E0.02942
G1 X135.670 Y95.342 Z0.250 E0.91103
G1 X135.630 Y94.749 Z0.250 E0.02764
G1 X121.184 Y109.195 Z0.250 E0.95003
G1 X120.552 Y109.195 Z0.250 E0.02942
G1 X135.591 Y94.156 Z0.250 E0.98903
G1 X135.551 Y93.563 Z0.250 E0.02764
G1 X119.919 Y109.195 Z0.250 E1.02803
G1 X119.286 Y109.195 Z0.250 E0.02942
G1 X135.511 Y92.970 Z0.250 E1.06703
G1 X135.472 Y92.377 Z0.250 E0.02764
G1 X118.654 Y109.195 Z0.250 E1.10603
G1 X118.021 Y109.195 Z0.250 E0.02942
G1 X135.430 Y91.787 Z0.250 E1.14488
G1 X135.382 Y91.202 Z0.250 E0.02728
G1 X117.388 Y109.195 Z0.250 E1.18334
G1 X116.755 Y109.195 Z0.250 E0.02942
G1 X135.146 Y90.805 Z0.250 E1.20946
G1 X134.513 Y90.805 Z0.250 E0.02942
G1 X116.123 Y109.195 Z0.250 E1.20946
G1 X115.490 Y109.195 Z0.250 E0.02942
G1 X133.881 Y90.805 Z0.250 E1.20946
G1 X133.248 Y90.805 Z0.250 E0.02942
G1 X114.857 Y109.195 Z0.250 E1.20946
G1 X114.224 Y109.195 Z0.250 E0.02942
G1 X132.615 Y90.805 Z0.250 E1.20946
G1 X131.982 Y90.805 Z0.250 E0.02942
G1 X113.592 Y109.195 Z0.250 E1.20946
G1 X112.959 Y109.195 Z0.250 E0.02942
G1 X131.350 Y90.805 Z0.250 E1.20946
G1 X130.717 Y90.805 Z0.250 E0.02942
G1 X112.326 Y109.195 Z0.250 E1.20946
G1 X111.693 Y109.195 Z0.250 E0.02942
G1 X130.084 Y90.805 Z0.250 E1.20946
G1 X129.452 Y90.805 Z0.250 E0.02942
G1 X111.061 Y109.195 Z0.250 E1.20946
G1 X110.428 Y109.195 Z0.250 E0.02942
G1 X128.819 Y90.805 Z0.250 E1.20946
G1 X128.186 Y90.805 Z0.250 E0.02942
G1 X109.795 Y109.195 Z0.250 E1.20946
G1 X109.163 Y109.195 Z0.250 E0.02942
G1 X127.553 Y90.805 Z0.250 E1.20946
G1 X126.921 Y90.805 Z0.250 E0.02942
G1 X108.530 Y109.195 Z0.250 E1.20946
G1 X107.897 Y109.195 Z0.250 E0.02942
G1 X126.288 Y90.805 Z0.250 E1.20946
G1 X125.655 Y90.805 Z0.250 E0.02942
G1 X107.264 Y109.195 Z0.250 E1.20946
G1 X106.632 Y109.195 Z0.250 E0.02942
G1 X125.022 Y90.805 Z0.250 E1.20946
G1 X124.390 Y90.805 Z0.250 E0.02942
G1 X105.999 Y109.195 Z0.250 E1.20946
G1 X105.366 Y109.195 Z0.250 E0.02942
G1 X123.757 Y90.805 Z0.250 E1.20946
G1 X123.124 Y90.805 Z0.250 E0.02942
G1 X104.733 Y109.195 Z0.250 E1.20946
G1 X104.101 Y109.195 Z0.250 E0.02942
G1 X122.491 Y90.805 Z0.250 E1.20946
G1 X121.859 Y90.805 Z0.250 E0.02942
G1 X103.468 Y109.195 Z0.250 E1.20946
G1 X102.835 Y109.195 Z0.250 E0.02942
G1 X121.226 Y90.805 Z0.250 E1.20946
G1 X120.593 Y90.805 Z0.250 E0.02942
G1 X102.203 Y109.195 Z0.250 E1.20946
G1 X101.570 Y109.195 Z0.250 E0.02942
G1 X119.961 Y90.805 Z0.250 E1.20946
G1 X119.328 Y90.805 Z0.250 E0.02942
G1 X100.937 Y109.195 Z0.250 E1.20946
G1 X100.304 Y109.195 Z0.250 E0.02942
G1 X118.695 Y90.805 Z0.250 E1.20946
G1 X118.062 Y90.805 Z0.250 E0.02942
G1 X99.672 Y109.195 Z0.250 E1.20946
G1 X99.039 Y109.195 Z0.250 E0.02942
G1 X117.430 Y90.805 Z0.250 E1.20946
G1 X116.797 Y90.805 Z0.250 E0.02942
G1 X98.406 Y109.195 Z0.250 E1.20946
G1 X97.773 Y109.195 Z0.250 E0.02942
G1 X116.164 Y90.805 Z0.250 E1.20946
G1 X115.531 Y90.805 Z0.250 E0.02942
G1 X97.141 Y109.195 Z0.250 E1.20946
G1 X96.508 Y109.195 Z0.250 E0.02942
G1 X114.899 Y90.805 Z0.250 E1.20946
G1 X114.266 Y90.805 Z0.250 E0.02942
G1 X95.875 Y109.195 Z0.250 E1.20946
G1 X95.242 Y109.195 Z0.250 E0.02942
G1 X113.633 Y90.805 Z0.250 E1.20946
G1 X113.001 Y90.805 Z0.250 E0.02942
G1 X94.610 Y109.195 Z0.250 E1.20946
G1 X93.977 Y109.195 Z0.250 E0.02942
G1 X112.368 Y90.805 Z0.250 E1.20946
G1 X111.735 Y90.805 Z0.250 E0.02942
G1 X93.344 Y109.195 Z0.250 E1.20946
G1 X92.712 Y109.195 Z0.250 E0.02942
G1 X111.102 Y90.805 Z0.250 E1.20946
G1 X110.470 Y90.805 Z0.250 E0.02942
G1 X92.079 Y109.195 Z0.250 E1.20946
G1 X91.446 Y109.195 Z0.250 E0.02942
G1 X109.837 Y90.805 Z0.250 E1.20946
G1 X109.204 Y90.805 Z0.250 E0.02942
G1 X90.813 Y109.195 Z0.250 E1.20946
G1 X90.181 Y109.195 Z0.250 E0.02942
G1 X108.571 Y90.805 Z0.250 E1.20946
G1 X107.939 Y90.805 Z0.250 E0.02942
G1 X89.548 Y109.195 Z0.250 E1.20946
G1 X88.915 Y109.195 Z0.250 E0.02942
G1 X107.306 Y90.805 Z0.250 E1.20946
G1 X106.673 Y90.805 Z0.250 E0.02942
G1 X88.282 Y109.195 Z0.250 E1.20946
G1 X87.650 Y109.195 Z0.250 E0.02942
G1 X106.041 Y90.805 Z0.250 E1.20946
G1 X105.408 Y90.805 Z0.250 E0.02942
G1 X87.017 Y109.195 Z0.250 E1.20946
G1 X86.384 Y109.195 Z0.250 E0.02942
G1 X104.775 Y90.805 Z0.250 E1.20946
G1 X104.142 Y90.805 Z0.250 E0.02942
G1 X85.752 Y109.195 Z0.250 E1.20946
G1 X85.119 Y109.195 Z0.250 E0.02942
G1 X103.510 Y90.805 Z0.250 E1.20946
G1 X102.877 Y90.805 Z0.250 E0.02942
G1 X84.486 Y109.195 Z0.250 E1.20946
G1 X83.853 Y109.195 Z0.250 E0.02942
G1 X102.244 Y90.805 Z0.250 E1.20946
G1 X101.611 Y90.805 Z0.250 E0.02942
G1 X83.221 Y109.195 Z0.250 E1.20946
G1 X82.588 Y109.195 Z0.250 E0.02942
G1 X100.979 Y90.805 Z0.250 E1.20946
G1 X100.346 Y90.805 Z0.250 E0.02942
G1 X81.955 Y109.195 Z0.250 E1.20946
G1 X81.322 Y109.195 Z0.250 E0.02942
G1 X99.713 Y90.805 Z0.250 E1.20946
G1 X99.080 Y90.805 Z0.250 E0.02942
G1 X80.690 Y109.195 Z0.250 E1.20946
G1 X80.057 Y109.195 Z0.250 E0.02942
G1 X98.448 Y90.805 Z0.250 E1.20946
G1 X97.815 Y90.805 Z0.250 E0.02942
G1 X79.424 Y109.195 Z0.250 E1.20946
G1 X78.792 Y109.195 Z0.250 E0.02942
G1 X97.182 Y90.805 Z0.250 E1.20946
G1 X96.550 Y90.805 Z0.250 E0.02942
G1 X78.159 Y109.195 Z0.250 E1.20946
G1 X77.526 Y109.195 Z0.250 E0.02942
G1 X95.917 Y90.805 Z0.250 E1.20946
G1 X95.284 Y90.805 Z0.250 E0.02942
G1 X76.893 Y109.195 Z0.250 E1.20946
G1 X76.261 Y109.195 Z0.250 E0.02942
G1 X94.651 Y90.805 Z0.250 E1.20946
G1 X94.019 Y90.805 Z0.250 E0.02942
G1 X75.628 Y109.195 Z0.250 E1.20946
G1 X74.995 Y109.195 Z0.250 E0.02942
G1 X93.386 Y90.805 Z0.250 E1.20946
G1 X92.753 Y90.805 Z0.250 E0.02942
G1 X74.362 Y109.195 Z0.250 E1.20946
G1 X73.730 Y109.195 Z0.250 E0.02942
G1 X92.120 Y90.805 Z0.250 E1.20946
G1 X91.488 Y90.805 Z0.250 E0.02942
G1 X73.097 Y109.195 Z0.250 E1.20946
G1 X72.464 Y109.195 Z0.250 E0.02942
G1 X90.855 Y90.805 Z0.250 E1.20946
G1 X90.222 Y90.805 Z0.250 E0.02942
G1 X71.831 Y109.195 Z0.250 E1.20946
G1 X71.199 Y109.195 Z0.250 E0.02942
G1 X89.590 Y90.805 Z0.250 E1.20946
G1 X88.957 Y90.805 Z0.250 E0.02942
G1 X70.566 Y109.195 Z0.250 E1.20946
G1 X69.933 Y109.195 Z0.250 E0.02942
G1 X88.324 Y90.805 Z0.250 E1.20946
G1 X87.691 Y90.805 Z0.250 E0.02942
G1 X69.301 Y109.195 Z0.250 E1.20946
G1 X68.668 Y109.195 Z0.250 E0.02942
G1 X87.059 Y90.805 Z0.250 E1.20946
G1 X86.426 Y90.805 Z0.250 E0.02942
G1 X68.035 Y109.195 Z0.250 E1.20946
G1 X67.402 Y109.195 Z0.250 E0.02942
G1 X85.793 Y90.805 Z0.250 E1.20946
G1 X85.160 Y90.805 Z0.250 E0.02942
G1 X66.770 Y109.195 Z0.250 E1.20946
G1 X66.137 Y109.195 Z0.250 E0.02942
G1 X84.528 Y90.805 Z0.250 E1.20946
G1 X83.895 Y90.805 Z0.250 E0.02942
G1 X65.504 Y109.195 Z0.250 E1.20946
G1 X64.871 Y109.195 Z0.250 E0.02942
G1 X83.262 Y90.805 Z0.250 E1.20946
G1 X82.629 Y90.805 Z0.250 E0.02942
G1 X64.239 Y109.195 Z0.250 E1.20946
G1 X63.948 Y109.195 Z0.250 E0.01354
G1 X63.948 Y109.195 Z0.250 E0.00000
G1 X63.947 Y108.854 Z0.250 E0.01587
G1 X81.997 Y90.805 Z0.250 E1.18701
G1 X81.364 Y90.805 Z0.250 E0.02942
G1 X63.947 Y108.222 Z0.250 E1.14544
G1 X63.946 Y107.781 Z0.250 E0.02048
G1 X63.946 Y107.781 Z0.250 E0.00000
G1 X63.946 Y107.590 Z0.250 E0.00892
G1 X80.731 Y90.805 Z0.250 E1.10386
G1 X80.099 Y90.805 Z0.250 E0.02942
G1 X63.946 Y106.957 Z0.250 E1.06228
G1 X63.945 Y106.325 Z0.250 E0.02940
G1 X79.466 Y90.805 Z0.250 E1.02071
G1 X78.833 Y90.805 Z0.250 E0.02942
G1 X63.945 Y105.693 Z0.250 E0.97913
G1 X63.944 Y105.409 Z0.250 E0.01320
G1 X63.944 Y105.409 Z0.250 E0.00000
G1 X63.944 Y105.280 Z0.250 E0.00601
G1 X63.944 Y105.280 Z0.250 E0.00000
G1 X63.944 Y105.061 Z0.250 E0.01019
G1 X78.200 Y90.805 Z0.250 E0.93755
G1 X77.568 Y90.805 Z0.250 E0.02942
G1 X63.944 Y104.429 Z0.250 E0.89597
G1 X63.943 Y103.796 Z0.250 E0.02940
G1 X76.935 Y90.805 Z0.250 E0.85440
G1 X76.302 Y90.805 Z0.250 E0.02942
G1 X63.943 Y103.164 Z0.250 E0.81282
G1 X63.942 Y102.532 Z0.250 E0.02940
G1 X75.669 Y90.805 Z0.250 E0.77124
G1 X75.037 Y90.805 Z0.250 E0.02942
G1 X63.942 Y101.900 Z0.250 E0.72966
G1 X63.941 Y101.267 Z0.250 E0.02940
G1 X74.404 Y90.805 Z0.250 E0.68809
G1 X73.771 Y90.805 Z0.250 E0.02942
G1 X63.941 Y100.635 Z0.250 E0.64651
G1 X63.940 Y100.202 Z0.250 E0.02013
G1 X63.940 Y100.202 Z0.250 E0.00000
G1 X63.940 Y100.003 Z0.250 E0.00927
G1 X73.139 Y90.805 Z0.250 E0.60493
G1 X72.506 Y90.805 Z0.250 E0.02942
G1 X63.940 Y99.371 Z0.250 E0.56335
G1 X63.939 Y98.739 Z0.250 E0.02940
G1 X71.873 Y90.805 Z0.250 E0.52178
G1 X71.240 Y90.805 Z0.250 E0.02942
G1 X63.939 Y98.106 Z0.250 E0.48020
G1 X63.938 Y97.474 Z0.250 E0.02940
G1 X70.608 Y90.805 Z0.250 E0.43862
G1 X69.975 Y90.805 Z0.250 E0.02942
G1 X63.938 Y96.842 Z0.250 E0.39704
G1 X63.937 Y96.210 Z0.250 E0.02940
